X:11
T:Charlie Hunter
T:Charlie Stuart's Jig
C:Bobby MacLeod
S:Bobby MacLeod's Selection of Country Dance Tunes
Z:Nigel Gatherer <gatherer:argonet.co.UK>
M:6/8
L:1/8
R:jig
K:D
DFA DGB | Adf a2g | fed Bcd | ecA GFE |
DFA DGB | Adf a2g | fef gec |1 edc d2A :|2 edc dfg |:
afd dcd | BGF G2F | E^GB e2d | cAA Aag |
fdA FDF | GBd g2g | fef gec |1 edc dfg :|2 edc d3 |]
